src/images/Beep-Logo.svg

<?xml version="1.0" encoding="UTF-8"?>
<svg width="45px" height="20px" viewBox="0 0 45 20" version="1.1" xmlns="http://www.w3.org/2000/svg">
    <!-- Generator: Sketch 50.2 (55047) - http://www.bohemiancoding.com/sketch -->
    <title>Beep-Logo</title>
    <desc>Created with Sketch.</desc>
    <defs></defs>
    <g id="Beep-Logo" stroke="none" stroke-width="1" fill="none" fill-rule="evenodd">
        <path d="M4.8771637,2.05412419 C4.46310022,2.64480159 4.28023403,3.53246172 4.32856513,4.71710458 L5.02083405,4.71710458 C5.24322146,4.71710458 5.45909342,4.72088144 5.66844999,4.72843516 C5.85933685,3.64923185 6.94981543,2.79930565 7.70023129,2.40753181 C7.58374117,2.23494551 7.51572957,2.02694117 7.51572957,1.80305188 C7.51572957,1.20557305 8.00008187,0.721220752 8.5975607,0.721220752 C9.19503953,0.721220752 9.67939183,1.20557305 9.67939183,1.80305188 C9.67939183,2.40053071 9.19503953,2.88488301 8.5975607,2.88488301 C8.35581162,2.88488301 8.13258289,2.80558798 7.95246487,2.67158828 C7.24715241,3.25928024 6.84594131,3.97123221 6.74883157,4.80744419 C7.85580377,4.93466259 8.73099248,5.19624545 9.37441129,5.59219549 C10.3224312,6.17559234 10.796434,7.07984389 10.796434,8.30497728 C10.796434,9.11444041 10.5904251,9.80356761 10.1784011,10.3723795 C9.76637703,10.9411915 9.22127377,11.3094552 8.54307493,11.4771818 L8.54307493,11.5756295 C9.42546267,11.8089883 10.0708358,12.197306 10.4792136,12.7405943 C10.8875913,13.2838826 11.0917772,14.0040023 11.0917772,14.900975 C11.0917772,16.2063254 10.6013666,17.2345469 9.6205306,17.9856704 C8.63969465,18.7367938 7.2997251,19.1123499 5.60058177,19.1123499 L0,19.1123499 L0,4.71710458 L3.04254703,4.71710458 C3.15583151,3.26419126 3.90920408,2.31118945 4.54632375,1.8037436 C4.374651,1.61226475 4.27023619,1.35924163 4.27023619,1.08183113 C4.27023619,0.484352294 4.75458848,0 5.35206732,0 C5.94954615,0 6.43389844,0.484352294 6.43389844,1.08183113 C6.43389844,1.67930996 5.94954615,2.16366226 5.35206732,2.16366226 C5.18169916,2.16366226 5.02052906,2.12428067 4.8771637,2.05412419 Z M5.18491359,13.0851613 L3.89415451,13.0851613 L3.89415451,16.1151636 L5.26148405,16.1151636 C6.47203252,16.1151636 7.07729767,15.6010528 7.07729767,14.5728159 C7.07729767,14.0915135 6.91504286,13.7232497 6.59052836,13.4680136 C6.26601386,13.2127775 5.79748029,13.0851613 5.18491359,13.0851613 Z M3.89415451,7.65959774 L3.89415451,10.2411159 L5.0645886,10.2411159 C5.62610807,10.2411159 6.05817988,10.1262614 6.36081699,9.89654886 C6.66345411,9.66683635 6.8147704,9.32591893 6.8147704,8.87378637 C6.8147704,8.06432324 6.20585907,7.65959774 4.98801814,7.65959774 L3.89415451,7.65959774 Z M21.497793,15.9401454 L21.497793,19.1123499 L12.9547181,19.1123499 L12.9547181,4.71710458 L21.497793,4.71710458 L21.497793,7.84555456 L16.8488726,7.84555456 L16.8488726,10.1098523 L21.1586953,10.1098523 L21.1586953,13.2273636 L16.8488726,13.2273636 L16.8488726,15.9401454 L21.497793,15.9401454 Z M32.2972352,15.9401454 L32.2972352,19.1123499 L23.7541602,19.1123499 L23.7541602,4.71710458 L32.2972352,4.71710458 L32.2972352,7.84555456 L27.6483147,7.84555456 L27.6483147,10.1098523 L31.9581374,10.1098523 L31.9581374,13.2273636 L27.6483147,13.2273636 L27.6483147,15.9401454 L32.2972352,15.9401454 Z M39.5416205,4.71710458 C41.3428583,4.71710458 42.7028818,5.11089155 43.6217318,5.8984773 C44.5405819,6.68606305 45,7.85101616 45,9.39337159 C45,10.935727 44.5259972,12.1480804 43.5779773,13.0304682 C42.6226649,13.9055634 41.2772261,14.3431045 39.5416205,14.3431045 L38.4477569,14.3431045 L38.4477569,19.1123499 L34.5536024,19.1123499 L34.5536024,4.71710458 L39.5416205,4.71710458 Z M38.4477569,7.85649319 L38.4477569,11.1709 L39.1478296,11.1709 C39.7385189,11.1709 40.2052294,11.0068221 40.547975,10.6786614 C40.8907207,10.3505006 41.0620909,9.89837485 41.0620909,9.32227046 C41.0620909,8.34508073 40.5224569,7.85649319 39.4431728,7.85649319 L38.4477569,7.85649319 Z" id="BEEP-Logo" fill="#FF5C5D"></path>
    </g>
</svg>

<svg viewBox="0 0 45 20" xmlns="http://www.w3.org/2000/svg">
  <path d="M4.877 2.054c-.414.59-.597 1.478-.548 2.663h.692c.222 0 .438.004.647.011C5.86 3.65 6.95 2.8 7.7 2.408a1.082 1.082 0 1 1 .252.264c-.705.587-1.106 1.3-1.203 2.135 1.107.128 1.982.39 2.625.785.948.584 1.422 1.488 1.422 2.713 0 .81-.206 1.499-.618 2.067a2.787 2.787 0 0 1-1.635 1.105v.099c.882.233 1.528.621 1.936 1.165.409.543.613 1.263.613 2.16 0 1.305-.49 2.334-1.471 3.085-.981.75-2.321 1.126-4.02 1.126H0V4.717h3.043c.113-1.453.866-2.406 1.503-2.913a1.082 1.082 0 1 1 .33.25zm.308 11.031h-1.29v3.03H5.26c1.211 0 1.816-.514 1.816-1.542 0-.481-.162-.85-.486-1.105-.325-.255-.794-.383-1.406-.383zM3.895 7.66v2.581h1.17c.561 0 .993-.115 1.296-.344.302-.23.454-.571.454-1.023 0-.81-.61-1.214-1.827-1.214H3.894zm17.603 8.28v3.172h-8.543V4.717h8.543v3.129h-4.65v2.264h4.31v3.117h-4.31v2.713h4.65zm10.8 0v3.172h-8.544V4.717h8.543v3.129h-4.649v2.264h4.31v3.117h-4.31v2.713h4.65zm7.244-11.223c1.8 0 3.16.394 4.08 1.181C44.54 6.686 45 7.851 45 9.393c0 1.543-.474 2.755-1.422 3.637-.955.876-2.3 1.313-4.036 1.313h-1.094v4.77h-3.894V4.716h4.988zm-1.094 3.14v3.314h.7c.59 0 1.057-.164 1.4-.492.343-.328.514-.78.514-1.357 0-.977-.54-1.466-1.619-1.466h-.995z" fill="#FF5C5D" fill-rule="evenodd"/>
</svg>
